X:1
T:Title
%%score 1 { 2 | ( 3 4 ) }
L:1/8
Q:1/4=107
M:4/4
K:Bb
V:1 treble nm="Grand Piano, Staff 1"
V:2 bass nm="Choir Pad, London New, CM"
V:3 bass 
V:4 bass 
V:1
 E2 [FB]2 [EG]2 [Ee]2 | [EB]2 [Ec]2 [Ge]2 [Fd]2 | [DB]2 [Ee]2 [EG]2 [EB]2 | [DF]2 E6 | %4
w: By~Psalms~(Edinburgh,~Scotland:~1635) * * *||||
 [EB]2 [Ee]2 [Fc]2 [Fd]2 | [DB]2 [Gc]2 [Fc]2 [DB]2 | [EG]2 [FB]2 [Ee]2 [EG]2 | [DF]2 E6- | %8
w: ||||
 E2 z2 z4 |] %9
w: |
V:2
 G,2 B,2 B,2 C2 | G,2 _A,2 B,2 B,2 | B,2 G,2 C2 B,2- | B,2 G,6 | G,2 G,2 A,2 A,2 | %5
 B,2 B,2 A,2 B,2 | B,2 B,2 G,_A, B,2- | B,2 G,6- | G,2 z2 z4 |] %9
V:3
 E,2 D,2 E,2 C,2 | E,2 z2 E,2 z2 | B,,2 C,2 C,2 G,,_A,, | z _A, E,6 | E,2 C,2 F,2 D,2 | %5
 G,2 E,2 F,2 B,,2 | E,2 D,2 C,2 B,,2 | z _A, E,6- | E,2 z2 z4 |] %9
V:4
 x8 | x8 | x8 | B,,2 z2 z4 | x8 | x8 | x8 | B,,2 z2 z4 | x8 |] %9

